packages/icon-set-ionic/svg/sharp/code-slash-sharp.svg

<svg viewBox="0 0 512 512" xmlns="http://www.w3.org/2000/svg"><path d="m161.98 397.63-161.98-141.63 161.98-141.63 27.65 31.61-125.63 110.02 125.63 110.02zm188.04 0-27.65-31.61 125.63-110.02-125.63-110.02 27.65-31.61 161.98 141.63zm-127.87 44.37-40.15-11.92 107.85-360.08 40.15 11.92z"/></svg>

<svg xmlns="http://www.w3.org/2000/svg" viewBox="0 0 512 512"><path d="M161.98 397.63 0 256l161.98-141.63 27.65 31.61L64 256l125.63 110.02zm188.04 0-27.65-31.61L448 256 322.37 145.98l27.65-31.61L512 256zM222.15 442 182 430.08 289.85 70 330 81.92z"/></svg>
